static/images/mobile.svg

<svg height="100" viewBox="0 0 100 100" width="100" xmlns="http://www.w3.org/2000/svg" xmlns:xlink="http://www.w3.org/1999/xlink"><defs><circle id="a" cx="35" cy="35" r="35"/><filter id="b" height="174.3%" width="174.3%" x="-37.1%" y="-31.4%"><feOffset dx="0" dy="4" in="SourceAlpha" result="shadowOffsetOuter1"/><feGaussianBlur in="shadowOffsetOuter1" result="shadowBlurOuter1" stdDeviation="8"/><feColorMatrix in="shadowBlurOuter1" type="matrix" values="0 0 0 0 0.254901961   0 0 0 0 0.458823529   0 0 0 0 0.647058824  0 0 0 0.24 0"/></filter><linearGradient id="c" x1="0%" x2="149.460671%" y1="0%" y2="71.875%"><stop offset="0" stop-color="#00eaf8"/><stop offset="1" stop-color="#6d42ef"/></linearGradient></defs><g fill="none" transform="translate(15 15)"><use fill="#000" filter="url(#b)" xlink:href="#a"/><use fill="#fff" fill-rule="evenodd" xlink:href="#a"/><path d="m24.6 17.95c-.3589851 0-.65.2910149-.65.65v32.5c0 .3589851.2910149.65.65.65h20.8c.3589851 0 .65-.2910149.65-.65v-32.5c0-.3589851-.2910149-.65-.65-.65zm0-1.95h20.8c1.4359403 0 2.6 1.1640597 2.6 2.6v32.5c0 1.4359403-1.1640597 2.6-2.6 2.6h-20.8c-1.4359403 0-2.6-1.1640597-2.6-2.6v-32.5c0-1.4359403 1.1640597-2.6 2.6-2.6zm-.65 7.15v1.95h22.1v-1.95zm4.225-3.25c-.5384776 0-.975.4365224-.975.975s.4365224.975.975.975h7.15c.5384776 0 .975-.4365224.975-.975s-.4365224-.975-.975-.975zm11.05 0c-.5384776 0-.975.4365224-.975.975s.4365224.975.975.975h2.6c.5384776 0 .975-.4365224.975-.975s-.4365224-.975-.975-.975zm-15.275 24.7v1.95h22.1v-1.95zm11.05 5.85c.7179702 0 1.3-.5820298 1.3-1.3s-.5820298-1.3-1.3-1.3-1.3.5820298-1.3 1.3.5820298 1.3 1.3 1.3z" fill="url(#c)"/></g></svg>

<?xml version="1.0" encoding="UTF-8"?>
<svg width="100px" height="100px" viewBox="0 0 100 100" version="1.1" xmlns="http://www.w3.org/2000/svg" xmlns:xlink="http://www.w3.org/1999/xlink">
    <!-- Generator: sketchtool 46.2 (44496) - http://www.bohemiancoding.com/sketch -->
    <title>949DAC4F-E25A-4810-95AB-3485C10D3CC9</title>
    <desc>Created with sketchtool.</desc>
    <defs>
        <circle id="path-1" cx="35" cy="35" r="35"></circle>
        <filter x="-37.1%" y="-31.4%" width="174.3%" height="174.3%" filterUnits="objectBoundingBox" id="filter-2">
            <feOffset dx="0" dy="4" in="SourceAlpha" result="shadowOffsetOuter1"></feOffset>
            <feGaussianBlur stdDeviation="8" in="shadowOffsetOuter1" result="shadowBlurOuter1"></feGaussianBlur>
            <feColorMatrix values="0 0 0 0 0.254901961   0 0 0 0 0.458823529   0 0 0 0 0.647058824  0 0 0 0.24 0" type="matrix" in="shadowBlurOuter1"></feColorMatrix>
        </filter>
        <linearGradient x1="0%" y1="0%" x2="149.460671%" y2="71.875%" id="linearGradient-3">
            <stop stop-color="#00EAF8" offset="0%"></stop>
            <stop stop-color="#6D42EF" offset="100%"></stop>
        </linearGradient>
    </defs>
    <g id="Symbols" stroke="none" stroke-width="1" fill="none" fill-rule="evenodd">
        <g id="ic/mobile" fill-rule="nonzero">
            <g id="Group" transform="translate(15.000000, 15.000000)">
                <g id="Oval">
                    <use fill="black" fill-opacity="1" filter="url(#filter-2)" xlink:href="#path-1"></use>
                    <use fill="#FFFFFF" fill-rule="evenodd" xlink:href="#path-1"></use>
                </g>
                <path d="M24.6,17.95 C24.2410149,17.95 23.95,18.2410149 23.95,18.6 L23.95,51.1 C23.95,51.4589851 24.2410149,51.75 24.6,51.75 L45.4,51.75 C45.7589851,51.75 46.05,51.4589851 46.05,51.1 L46.05,18.6 C46.05,18.2410149 45.7589851,17.95 45.4,17.95 L24.6,17.95 Z M24.6,16 L45.4,16 C46.8359403,16 48,17.1640597 48,18.6 L48,51.1 C48,52.5359403 46.8359403,53.7 45.4,53.7 L24.6,53.7 C23.1640597,53.7 22,52.5359403 22,51.1 L22,18.6 C22,17.1640597 23.1640597,16 24.6,16 Z M23.95,23.15 L23.95,25.1 L46.05,25.1 L46.05,23.15 L23.95,23.15 Z M28.175,19.9 C27.6365224,19.9 27.2,20.3365224 27.2,20.875 C27.2,21.4134776 27.6365224,21.85 28.175,21.85 L35.325,21.85 C35.8634776,21.85 36.3,21.4134776 36.3,20.875 C36.3,20.3365224 35.8634776,19.9 35.325,19.9 L35.325,19.9 L28.175,19.9 Z M39.225,19.9 C38.6865224,19.9 38.25,20.3365224 38.25,20.875 C38.25,21.4134776 38.6865224,21.85 39.225,21.85 L41.825,21.85 C42.3634776,21.85 42.8,21.4134776 42.8,20.875 C42.8,20.3365224 42.3634776,19.9 41.825,19.9 L41.825,19.9 L39.225,19.9 Z M23.95,44.6 L23.95,46.55 L46.05,46.55 L46.05,44.6 L23.95,44.6 Z M35,50.45 C35.7179702,50.45 36.3,49.8679702 36.3,49.15 C36.3,48.4320298 35.7179702,47.85 35,47.85 C34.2820298,47.85 33.7,48.4320298 33.7,49.15 C33.7,49.8679702 34.2820298,50.45 35,50.45 Z" id="Combined-Shape" fill="url(#linearGradient-3)"></path>
            </g>
        </g>
    </g>
</svg>
